packages/ckeditor5-icons/theme/template-generic.svg

<svg fill="none" xmlns="http://www.w3.org/2000/svg" viewBox="0 0 45 45">
  <path fill="#F0F0F0" d="M2 0h41s2 0 2 2v41s0 2 -2 2h-41s-2 0 -2 -2v-41s0 -2 2 -2" />
  <path fill="#D5D5D5" d="M11 10h10s1 0 1 1v24s0 1 -1 1h-10s-1 0 -1 -1v-24s0 -1 1 -1" />
  <path fill="#D5D5D5" d="M25 10h10s1 0 1 1v10s0 1 -1 1h-10s-1 0 -1 -1v-10s0 -1 1 -1" />
  <path fill="#D5D5D5" d="M25 24h10s1 0 1 1v10s0 1 -1 1h-10s-1 0 -1 -1v-10s0 -1 1 -1" />
</svg>

<svg xmlns="http://www.w3.org/2000/svg" viewBox="0 0 45 45"><path d="M2 0h41s2 0 2 2v41s0 2-2 2H2s-2 0-2-2V2s0-2 2-2"/><path d="M11 10h10s1 0 1 1v24s0 1-1 1H11s-1 0-1-1V11s0-1 1-1"/><path d="M25 10h10s1 0 1 1v10s0 1-1 1H25s-1 0-1-1V11s0-1 1-1"/><path d="M25 24h10s1 0 1 1v10s0 1-1 1H25s-1 0-1-1V25s0-1 1-1"/></svg>
